svg/u1f3b7.svg

<svg viewBox="0 0 128 128" xmlns="http://www.w3.org/2000/svg">
  <g>
    <path d="M103.97,27.79l-1.6,2.63c0,0,0.86,2.9,6.37,4.82c5.51,1.92,13.96,1.6,13.96,1.6s1.83-1.16,1.14-3.11 c-0.69-1.94-2.28-1.25-4.57-4.23c-2.28-2.97-2.17-4.69-5.26-5.94c-3.08-1.26-6.63-1.26-8.23,0.69 C104.2,26.2,103.97,27.79,103.97,27.79z" fill="#616161"/>
    <path d="M107.85,23.8c-1.71-1.03-5.14-6.17-6.51-9.43c-1.37-3.26-4.24-6.46-9.94-6.51 c-5.36-0.05-7.41,1.87-10.11,6.85c-2.55,4.72-37.53,69.41-37.53,69.41s0-5.48,1.71-14.05c1.71-8.57,4.31-12.46,5.58-14.75v0 c1.08-1.43,1.68-2.98,1.68-4.61c0-6.97-10.91-12.62-24.37-12.62C14.91,38.09,4,43.74,4,50.71c0,1.72,0.67,3.36,1.87,4.85l0,0l0,0 c0.04,0.05,0.08,0.1,0.12,0.15c0.92,1.12,7.14,8.9,6.54,13.56c-0.65,5.03-3.62,26.28,0.95,37.24 c4.57,10.97,15.25,14.49,24.73,13.03c8.13-1.26,15.71-5.72,23.48-22.63c7.77-16.91,28.79-71.49,28.79-71.49s1.6-5.28,3.43-2.77 c1.83,2.51,4.57,6.4,8.45,7.77c3.88,1.37,4.97-1.66,5.48-2.34C108.37,27.39,109.57,24.82,107.85,23.8z" fill="#FFCA28"/>
    <ellipse cx="28.37" cy="48.84" rx="16.98" ry="6.97" fill="#DD7341"/>
    <g>
      <circle cx="57.3" cy="70.21" r="5.79" fill="#FB8C00"/>
      <circle cx="63.46" cy="57.01" r="5.58" fill="#FB8C00"/>
      <circle cx="69.62" cy="43.81" r="5.37" fill="#FB8C00"/>
      <circle cx="75.78" cy="30.61" r="5.16" fill="#FB8C00"/>
    </g>
    <path d="M26.19,62.63c0.38,0.06,0.77,0.13,1.08,0.35c0.54,0.38,0.68,1.11,0.74,1.77 c0.39,4.74-1.73,9.27-3.34,13.75c-2.45,6.8-3.81,14.03-3.56,21.25c0.18,4.99,1.35,10.31,4.59,13.96c0.29,0.32-0.1,0.81-0.47,0.57 c-4.01-2.53-6.5-7.26-7.88-11.92c-1.48-5.01-2.05-10.29-1.68-15.5c0.34-4.79,1.47-9.5,1.65-14.29c0.07-1.77-0.01-3.54-0.29-5.29 c-0.28-1.76-0.85-3.34-1.49-4.99c-0.36-0.92,0.16-1.29,1.05-1.27c1.18,0.03,2.36,0.38,3.51,0.61 C22.12,62.04,24.16,62.31,26.19,62.63z" fill="#FFF9C4"/>
  </g>
</svg>

<svg viewBox="0 0 128 128" xmlns="http://www.w3.org/2000/svg">
  <defs/>
  <path d="M103.97,27.79 L102.37,30.42 C102.37,30.42 103.23,33.32 108.74,35.24 C114.25,37.16 122.7,36.84 122.7,36.84 C122.7,36.84 124.53,35.68 123.84,33.73 C123.15,31.79 121.56,32.48 119.27,29.5 C116.99,26.53 117.1,24.81 114.01,23.56 C110.93,22.3 107.38,22.3 105.78,24.25 C104.2,26.2 103.97,27.79 103.97,27.79 Z" fill="#616161"/>
  <path d="M107.85,23.8 C106.14,22.77 102.71,17.63 101.34,14.37 C99.97,11.11 97.1,7.91 91.4,7.86 C86.04,7.81 83.99,9.73 81.29,14.71 C78.74,19.43 43.76,84.12 43.76,84.12 C43.76,84.12 43.76,78.64 45.47,70.07 C47.18,61.5 49.78,57.61 51.05,55.32 L51.05,55.32 C52.13,53.89 52.73,52.34 52.73,50.71 C52.73,43.74 41.82,38.09 28.36,38.09 C14.91,38.09 4,43.74 4,50.71 C4,52.43 4.67,54.07 5.87,55.56 L5.87,55.56 L5.87,55.56 C5.91,55.61 5.95,55.66 5.99,55.71 C6.91,56.83 13.13,64.61 12.53,69.27 C11.88,74.3 8.91,95.55 13.48,106.51 C18.05,117.48 28.73,121 38.21,119.54 C46.34,118.28 53.92,113.82 61.69,96.91 C69.46,80 90.48,25.42 90.48,25.42 C90.48,25.42 92.08,20.14 93.91,22.65 C95.74,25.16 98.48,29.05 102.36,30.42 C106.24,31.79 107.33,28.76 107.84,28.08 C108.37,27.39 109.57,24.82 107.85,23.8 Z" fill="#FFCA28"/>
  <path d="M45.35,48.84 A16.98 6.97 0 1 1 11.39,48.84 A16.98 6.97 0 1 1 45.35,48.84 Z" fill="#DD7341"/>
  <path d="M63.09,70.21 A5.79 5.79 0 1 1 51.51,70.21 A5.79 5.79 0 1 1 63.09,70.21 Z" fill="#FB8C00"/>
  <path d="M69.04,57.01 A5.58 5.58 0 1 1 57.88,57.01 A5.58 5.58 0 1 1 69.04,57.01 Z" fill="#FB8C00"/>
  <path d="M74.99,43.81 A5.37 5.37 0 1 1 64.25,43.81 A5.37 5.37 0 1 1 74.99,43.81 Z" fill="#FB8C00"/>
  <path d="M80.94,30.61 A5.16 5.16 0 1 1 70.62,30.61 A5.16 5.16 0 1 1 80.94,30.61 Z" fill="#FB8C00"/>
  <path d="M26.19,62.63 C26.57,62.69 26.96,62.76 27.27,62.98 C27.81,63.36 27.95,64.09 28.01,64.75 C28.4,69.49 26.28,74.02 24.67,78.5 C22.22,85.3 20.86,92.53 21.11,99.75 C21.29,104.74 22.46,110.06 25.7,113.71 C25.99,114.03 25.6,114.52 25.23,114.28 C21.22,111.75 18.73,107.02 17.35,102.36 C15.87,97.35 15.3,92.07 15.67,86.86 C16.01,82.07 17.14,77.36 17.32,72.57 C17.39,70.8 17.31,69.03 17.03,67.28 C16.75,65.52 16.18,63.94 15.54,62.29 C15.18,61.37 15.7,61 16.59,61.02 C17.77,61.05 18.95,61.4 20.1,61.63 C22.12,62.04 24.16,62.31 26.19,62.63 Z" fill="#FFF9C4"/>
</svg>
